!!!SOCIAL_FUNCTION:	deer dance songs
!!!PDT:	1932
!!!OTL: No_58_The_Water_Bug_and_the_Shadows.krn
!!!REG: Southwest
!!!LANG: Non-Tone
!!!LING_GROUP: Yuman-Cochimi
**kern	**kern
*staff2	*staff1
=1-	=1-
*clefF4	*clefF4
*k[b-e-a-d-]	*k[b-e-a-d-]
*M2/4	*M2/4
4GG/	4r
4GG/	8.r
.	16A-\
=2	=2
4GG/	4A-\
4GG/	4A-\
=3||	=3||
*M3/4	*M3/4
4GG/	4B-\
4r	4r
4r	4A-\
=4||	=4||
*M2/4	*M2/4
4GG/	8.B-\L
.	16A-\Jk
4GG/	4A-\
=5||	=5||
*M3/4	*M3/4
4GG/	2A-\
4GG/	.
4r	8r
.	16r
.	16F\
=6||	=6||
*M2/4	*M2/4
4GG/	4A-\
4GG/	8.A-\L
.	16F\Jk
=7||	=7||
*M3/4	*M3/4
4GG/	2A-\
4GG/	.
4r	8r
.	16r
.	16F\
=8||	=8||
*M2/4	*M2/4
4GG/	4A-\
4GG/	8.A-\L
.	16F\Jk
=9||	=9||
*M3/4	*M3/4
4GG/	2A-\
4GG/	.
4r	8r
.	16r
.	16F\
=10||	=10||
*M2/4	*M2/4
4GG/	4A-\
4GG/	8.A-\L
.	16F\Jk
=11	=11
4GG/	2A-\
4GG/	.
==	==
*-	*-
